source/img/services/services-nav/social-icon-active.svg

<svg width="32" height="32" viewBox="0 0 32 32" fill="none" xmlns="http://www.w3.org/2000/svg">
<path fill-rule="evenodd" clip-rule="evenodd" d="M15.9998 4.09284C15.0539 4.09284 14.1659 4.33575 13.3936 4.76229C13.2003 4.86908 12.9569 4.7989 12.8502 4.60555C12.7434 4.4122 12.8135 4.16889 13.0069 4.06211C13.8946 3.57184 14.9152 3.29297 15.9998 3.29297C19.4234 3.29297 22.1988 6.06837 22.1988 9.492C22.1988 12.9156 19.4234 15.691 15.9998 15.691C12.5762 15.691 9.80078 12.9156 9.80078 9.492C9.80078 8.2741 10.1524 7.13711 10.7598 6.17843C10.878 5.99185 11.1251 5.93643 11.3117 6.05465C11.4983 6.17287 11.5537 6.41995 11.4355 6.60653C10.9068 7.44095 10.6007 8.43011 10.6007 9.492C10.6007 12.4739 13.0179 14.8911 15.9998 14.8911C18.9817 14.8911 21.399 12.4739 21.399 9.492C21.399 6.51013 18.9817 4.09284 15.9998 4.09284Z" fill="#0A3D76"/>
<path fill-rule="evenodd" clip-rule="evenodd" d="M25.7506 22.9334C26.2203 22.1123 26.4496 21.2222 26.4615 20.3424C26.4645 20.1221 26.6464 19.9454 26.8679 19.9476C27.0893 19.9499 27.2664 20.1303 27.2635 20.3506C27.2498 21.3619 26.9859 22.3848 26.4474 23.3262C24.7475 26.298 20.9517 27.3441 17.9694 25.6628C14.987 23.9815 13.9474 20.2094 15.6473 17.2377C17.3473 14.2659 21.143 13.2197 24.1254 14.901C25.1863 15.4991 26.0021 16.3627 26.5356 17.3608C26.6395 17.555 26.5651 17.7967 26.3694 17.9006C26.1738 18.0045 25.9311 17.9313 25.8272 17.737C25.3629 16.8683 24.6532 16.1168 23.7282 15.5953C21.1307 14.131 17.8247 15.0421 16.3441 17.6305C14.8635 20.2188 15.769 23.5041 18.3665 24.9685C20.9641 26.4329 24.27 25.5217 25.7506 22.9334Z" fill="#0A3D76"/>
<path fill-rule="evenodd" clip-rule="evenodd" d="M3.73141 19.1478C3.66143 20.0911 3.83801 20.9944 4.20628 21.7956C4.29848 21.9962 4.21049 22.2338 4.00976 22.3262C3.80902 22.4186 3.57155 22.3308 3.47935 22.1302C3.05606 21.2092 2.85343 20.1711 2.93366 19.0894C3.18692 15.6752 6.16023 13.1098 9.57474 13.3594C12.9893 13.609 15.552 16.5791 15.2987 19.9934C15.0454 23.4076 12.0721 25.9731 8.65762 25.7235C7.44297 25.6347 6.33501 25.2011 5.42382 24.5254C5.24648 24.394 5.20949 24.1435 5.34119 23.9661C5.4729 23.7886 5.72343 23.7513 5.90076 23.8828C6.69385 24.4709 7.65773 24.8483 8.71679 24.9258C11.6907 25.1432 14.2804 22.9088 14.501 19.9351C14.7215 16.9614 12.4895 14.3745 9.51558 14.1571C6.54165 13.9396 3.95198 16.1741 3.73141 19.1478Z" fill="#0A3D76"/>
<path d="M17.6909 7.3807V6.11084H16.2986C15.6395 6.11084 15.1052 6.63564 15.1052 7.28302V8.55288H14.3096V9.72506H15.1052V13.437H16.2986V9.72506H17.2903L17.492 8.55288H16.2986V7.57606C16.2986 7.46817 16.3876 7.3807 16.4975 7.3807H17.6909Z" fill="#0A3D76"/>
<path fill-rule="evenodd" clip-rule="evenodd" d="M12.1815 16.8184C12.7338 16.8184 13.1815 17.2661 13.1815 17.8184V21.4538C13.1815 22.0061 12.7338 22.4538 12.1815 22.4538H6.29297C5.74068 22.4538 5.29297 22.0061 5.29297 21.4538V17.8184C5.29297 17.2661 5.74068 16.8184 6.29297 16.8184H12.1815ZM8.60534 19.2964V20.2902C8.60534 20.685 9.04139 20.924 9.37423 20.7117L10.1532 20.2148C10.4614 20.0183 10.4614 19.5683 10.1532 19.3717L9.37423 18.8748C9.04139 18.6625 8.60534 18.9016 8.60534 19.2964Z" fill="url(#paint0_linear)"/>
<rect x="5.29541" y="16.8184" width="7.88854" height="5.63548" rx="1" stroke="#0A3D76" stroke-width="0.5"/>
<path d="M8.60645 21.2023V18.3845L10.8152 19.7934L8.60645 21.2023Z" stroke="#0A3D76" stroke-width="0.5" stroke-linejoin="round"/>
<path fill-rule="evenodd" clip-rule="evenodd" d="M18.2544 17.9854V22.212L19.226 23.0171H22.7239L23.8899 22.0107V18.1867L22.9182 17.3816H19.0317L18.2544 17.9854ZM20.0033 20.8031V19.193L21.1693 18.5892L22.3353 19.3943V20.8031L21.1693 21.4069L20.0033 20.8031Z" fill="url(#paint1_linear)"/>
<rect x="18.2544" y="17.3816" width="5.63548" height="5.63548" rx="1" stroke="#0A3D76" stroke-width="0.5"/>
<path d="M22.5121 20.1992C22.5121 20.9948 21.8671 21.6398 21.0715 21.6398C20.2759 21.6398 19.6309 20.9948 19.6309 20.1992C19.6309 19.4035 20.2759 18.7585 21.0715 18.7585C21.8671 18.7585 22.5121 19.4035 22.5121 20.1992Z" stroke="#0A3D76" stroke-width="0.5"/>
<ellipse cx="22.7622" cy="18.5086" rx="0.281772" ry="0.281773" fill="#0A3D76"/>
<defs>
<linearGradient id="paint0_linear" x1="12.9384" y1="19.6361" x2="5.52967" y2="19.4134" gradientUnits="userSpaceOnUse">
<stop stop-color="#A62E41"/>
<stop offset="1" stop-color="#E13152"/>
</linearGradient>
<linearGradient id="paint1_linear" x1="23.7162" y1="20.1993" x2="18.4211" y2="20.0856" gradientUnits="userSpaceOnUse">
<stop stop-color="#A62E41"/>
<stop offset="1" stop-color="#E13152"/>
</linearGradient>
</defs>
</svg>

<svg width="32" height="32" fill="none" xmlns="http://www.w3.org/2000/svg"><path fill-rule="evenodd" clip-rule="evenodd" d="M16 4.093c-.946 0-1.834.243-2.606.67a.4.4 0 11-.387-.7 6.199 6.199 0 11-2.247 2.116.4.4 0 01.675.428A5.399 5.399 0 1016 4.093z" fill="#0A3D76"/><path fill-rule="evenodd" clip-rule="evenodd" d="M25.75 22.933a5.35 5.35 0 00.712-2.59.402.402 0 01.802.008 6.146 6.146 0 01-.817 2.975 6.246 6.246 0 01-8.478 2.337 6.152 6.152 0 01-2.322-8.425 6.246 6.246 0 018.478-2.337 6.141 6.141 0 012.41 2.46.401.401 0 01-.708.376 5.346 5.346 0 00-2.099-2.142 5.44 5.44 0 00-7.384 2.036 5.359 5.359 0 002.022 7.337 5.44 5.44 0 007.385-2.035z" fill="#0A3D76"/><path fill-rule="evenodd" clip-rule="evenodd" d="M3.731 19.148c-.07.943.107 1.846.475 2.648a.4.4 0 01-.727.334 6.207 6.207 0 016.095-8.77 6.19 6.19 0 015.725 6.633 6.207 6.207 0 01-9.875 4.532.4.4 0 11.477-.642 5.406 5.406 0 008.6-3.948 5.392 5.392 0 00-4.985-5.778 5.406 5.406 0 00-5.785 4.99z" fill="#0A3D76"/><path d="M17.69 7.38V6.11H16.3c-.66 0-1.194.526-1.194 1.173v1.27h-.795v1.172h.795v3.712H16.3V9.725h.991l.202-1.172H16.3v-.977c0-.108.089-.195.198-.195h1.194z" fill="#0A3D76"/><path fill-rule="evenodd" clip-rule="evenodd" d="M12.181 16.818a1 1 0 011 1v3.636a1 1 0 01-1 1H6.293a1 1 0 01-1-1v-3.636a1 1 0 011-1h5.888zm-3.576 2.478v.994a.5.5 0 00.77.422l.778-.497a.5.5 0 000-.843l-.779-.497a.5.5 0 00-.769.421z" fill="url(#paint0_linear)"/><rect x="5.295" y="16.818" width="7.889" height="5.635" rx="1" stroke="#0A3D76" stroke-width=".5"/><path d="M8.606 21.202v-2.818l2.21 1.41-2.21 1.408z" stroke="#0A3D76" stroke-width=".5" stroke-linejoin="round"/><path fill-rule="evenodd" clip-rule="evenodd" d="M18.254 17.985v4.227l.972.805h3.498l1.166-1.006v-3.824l-.972-.805h-3.886l-.778.603zm1.75 2.818v-1.61l1.165-.604 1.166.805v1.41l-1.166.603-1.166-.604z" fill="url(#paint1_linear)"/><rect x="18.254" y="17.382" width="5.635" height="5.635" rx="1" stroke="#0A3D76" stroke-width=".5"/><path d="M22.512 20.2a1.44 1.44 0 11-2.881 0 1.44 1.44 0 012.881 0z" stroke="#0A3D76" stroke-width=".5"/><circle cx="22.762" cy="18.509" fill="#0A3D76" r=".282"/><defs><linearGradient id="paint0_linear" x1="12.938" y1="19.636" x2="5.53" y2="19.413" gradientUnits="userSpaceOnUse"><stop stop-color="#A62E41"/><stop offset="1" stop-color="#E13152"/></linearGradient><linearGradient id="paint1_linear" x1="23.716" y1="20.199" x2="18.421" y2="20.086" gradientUnits="userSpaceOnUse"><stop stop-color="#A62E41"/><stop offset="1" stop-color="#E13152"/></linearGradient></defs></svg>
